Sources/FrostedUI/Resources/Icons.xcassets/megaphone20.imageset/megaphone-20.svg

<svg width="20" height="20" viewBox="0 0 20 20" fill="none" xmlns="http://www.w3.org/2000/svg" data-fui-icon="true">
  <path
    d="M16.5 1C17.8807 1 19 2.11929 19 3.5V16.5C19 17.8807 17.8807 19 16.5 19C15.1317 19 14.0208 17.9007 14.001 16.5371L9.5 14.9971V17.25C9.5 17.6642 9.16421 18 8.75 18C8.33579 18 8 17.6642 8 17.25V14.4834L5.88086 13.7588C5.55942 14.7682 4.61597 15.5 3.5 15.5C2.11929 15.5 1 14.3807 1 13V7C1 5.61929 2.11929 4.5 3.5 4.5C4.61564 4.5 5.55915 5.23124 5.88086 6.24023L14.001 3.46191C14.0213 2.09877 15.132 1 16.5 1ZM16.5 2.5C15.9477 2.5 15.5 2.94772 15.5 3.5V16.5C15.5 17.0523 15.9477 17.5 16.5 17.5C17.0523 17.5 17.5 17.0523 17.5 16.5V3.5C17.5 2.94772 17.0523 2.5 16.5 2.5ZM6 7.78613V12.2129L14 14.9502V5.04883L6 7.78613ZM3.5 6C2.94772 6 2.5 6.44772 2.5 7V13C2.5 13.5523 2.94772 14 3.5 14C4.05228 14 4.5 13.5523 4.5 13V7C4.5 6.44772 4.05228 6 3.5 6Z"
    fill="currentColor"
  />
</svg>

<svg xmlns="http://www.w3.org/2000/svg" width="20" height="20" fill="none" data-fui-icon="true" viewBox="0 0 20 20"><path fill="currentColor" d="M16.5 1A2.5 2.5 0 0 1 19 3.5v13a2.5 2.5 0 0 1-4.999.037L9.5 14.997v2.253a.75.75 0 0 1-1.5 0v-2.767l-2.12-.724A2.5 2.5 0 0 1 1 13V7a2.5 2.5 0 0 1 4.88-.76l8.121-2.778A2.5 2.5 0 0 1 16.5 1m0 1.5a1 1 0 0 0-1 1v13a1 1 0 1 0 2 0v-13a1 1 0 0 0-1-1M6 7.786v4.427l8 2.737V5.05zM3.5 6a1 1 0 0 0-1 1v6a1 1 0 1 0 2 0V7a1 1 0 0 0-1-1"/></svg>
